X:1
T:Cawsand Bay
M:3/4
L:1/4
K:G
 D| G G G| G d G| A A A| A c A| B d A| B d G| B A A| A2 D| G G G| G B G|\
 A A A| A c A| B d G| B d c| B G A| G2||
